X:127
T:Breakaway Heart
C:Kathy Talvitie, 1993
L:1/8
M:3/4
R:Waltz
%%MIDI beat 100 95 80
%%MIDI program 22       % Harmonica
%%MIDI bassprog 46      % Orchestral Harp
%%MIDI chordprog 45     % Pizzicato Strings
S:Colin Hume's website,  colinhume.com  - chords can also be printed below the stave.
Q:1/4=120
N:For the dance "The Dunsmuir Waltz" by John Drewry / Bruce Hamilton
K:F
D | "F"F3G AB | "Dm"F2D4 | "C"C3E GA | "Dm"F4F2 | "Bb"d3c BA | "Gm"A2G2FG | "A"A3G FE | "Bb"F3D CB, |
"F"A,3C EF | "Bb"E2D2C2 | "F"A,2 DE FA | "Bb"D4 D2 | "Gm"B3A GF | "C"F2 E2 AB | "Am"c3d "Dm"AB | "C"c3c de |
"F"f3e AB | "Fmaj7"d2 c4 | "Dm"d2 cB FG | "A/C#"AB AG FE | "Bb"F3G FE | "Dm"D2 C4 | "Gm"B3A GF | "C"C3c de |
"F"f3e AB | "Fmaj7"d2 c4 | "Dm"d2 c2 A2 | "A/C#"a4 g2 | "Bb"f3g fe | "Dm"d2 c2 A2 | "Gm"B2 A4 | "C7"D4 E2 |] "^Last time""F"F6 |]

